X:1
T:Our Day of Joy Is Here Again
T:Our Day of Joy Is Here Again
T:Andrew L. Skoog
T:Andrew L. Skoog, 1892
T:Public Domain Courtesy of the Cyber Hymnal™
C:Andrew L. Skoog
Z:Public Domain
Z:Courtesy of the Cyber Hymnal™
%%score ( 1 2 ) 3
L:1/8
Q:1/4=110
M:6/8
K:Bb
V:1 treble 
V:2 treble 
V:3 bass 
V:1
 [DF] | [DB]2 [DB] (BA)[EG] | [DF]2 [CE] [B,D]2 [DF] | [CE]2 [CE] ([CE][B,D])[A,C] | %4
w: 1.~Our|day of joy * is|here a- gain, With|love and peace * and|
w: 2.~When|dark- ness lay * up-|on this earth, A|glor- ious light * did|
w: 3.~Now|to the man- * ger|let us go To|wor- ship and * a-|
w: 4.~How|won- der- ful * that|God’s own Son Should|so Him- self * a-|
 [B,D]3- [B,D]2 [DF] | [DB]2 [DB] (BA)[EG] | [DF]2 [CE] [B,D]2 [B,D] | [B,D]2 [B,C] [B,C]2 [B,D] | %8
w: song; * Come,|let us join * th’an-|gel- ic strain With|voic- es clear and|
w: shine, * God|sent a Gift * of|price- less worth And|showed His love di-|
w: dore * The|ten- der babe * up-|on the straw, Our|Sav- ior ev- er-|
w: base! * He|thrust the might- * y|from their throne, And|gave the low- ly|
 [A,C]6 ||"^Refrain" [B,D]2 [DF] [DB]2 [DB] | [EB]2 [EA] [Ec]3 | [EF]2 [EA] [Ec]2 [Ec] | %12
w: strong.||||
w: vine.|Glor- y to our|God, we sing,|Glor- y to our|
w: more.||||
w: grace.||||
 [Dc]2 [DB] [Fd]3 [Fd]2 [Ec] [DB]2 [FA] | [Gc]2 [GB] [EG]2 [EG] | [DF]2 [DF] [Fd]2 [Ec] | %15
w: |||
w: Lord and king; Peace, good- will with|all a- bide This|ho- ly Christ- mas|
w: |||
w: |||
 [DB]3- [DB]2 |] %16
w: |
w: tide. *|
w: |
w: |
V:2
 x | x3 E2 x | x6 | x6 | x6 | x3 E2 x | x6 | x6 | x6 || x6 | x6 | x6 | x12 | x6 | x6 | x5 |] %16
V:3
 [B,,F,] | [B,,F,]2 [B,,F,] [B,,G,]2 [B,,A,] | [B,,B,]2 [B,,B,] [B,,F,]2 [B,,F,] | %3
 [F,,F,]2 [F,,F,] [F,,F,]2 [F,,F,] | [B,,F,]3- [B,,F,]2 [B,,F,] | %5
 [B,,F,]2 [B,,F,] [B,,G,]2 [B,,A,] | [B,,B,]2 [B,,B,] [B,,F,]2 [B,,F,] | %7
 [C,F,]2 [C,F,] [C,=E,]2 [C,E,] | [F,,F,]6 || [B,,F,]2 [B,,B,] [B,,B,]2 [B,,B,] | %10
 [F,C]2 [F,C] [F,A,]3 | [F,A,]2 F, [F,A,]2 [F,A,] | %12
 [B,,B,]2 [B,,B,] [B,,B,]3 [B,,B,]2 [B,,B,] [B,,B,]2 [D,B,] | [E,B,]2 [E,B,] [E,B,]2 [E,B,] | %14
 [F,B,]2 [F,B,] [F,,F,B,]2 [F,,F,A,] | [B,,B,]3- [B,,B,]2 |] %16

